X: 33
T:Adair's Waltz
R:Waltz
M:3/4
L:1/8
N:Tamara Loewenthal, transcribed by Jamie Gans
H:Preferred fiddle tuning ADAE
K:D
|z4A,B,|:D2DFED|FA2A 
BA|F2F2DF|EDB,2A,B,|D2DFED|FA2A BA|
F2FDEF|&#91;1D6:|&#91;2D4A2|:B3ABA|Bd3B2|A2A2BA|FED2A2|B3ABA|
Bd3B2|A2A2(3FED|F3DEF|E4A,B,|D2DFED|FA2ABA|F2F2DF|EDB,2A,B,|
D2DFED|FA2ABA|F2FDEF|D6F||
